X:1
T:Steal Away to Jesus
T:Steal Away to Jesus
T:African-American Spiritual
T:Public Domain Courtesy of the Cyber Hymnal™
C:African-American Spiritual
Z:Public Domain
Z:Courtesy of the Cyber Hymnal™
%%score ( 1 2 ) ( 3 4 )
L:1/8
Q:1/4=115
M:4/4
K:F
V:1 treble 
V:2 treble 
V:3 bass 
V:4 bass 
V:1
 [CF]3 [CF] [CF]4 | [FA]3 [FA] [FA]4 | [Fc]3 [Fc] [Fc]3 [Fd] | [EG]2 [FA]6 | [CF]3 [DF] [_EF]4 | %5
w: ~ ~ ~|~ ~ ~|~ ~ ~ ~|~ ~|~ ~ ~|
w: Steal a- way,|steal a- way,|steal a- way to|Je- sus!|Steal a- way,|
w: ~ ~ ~|~ ~ ~|~ ~ ~ ~|~ ~|~ ~ ~|
 [Fd][Fc] [FA]2 [Ec]3 [DF] | [DF]2 [DF]2 [FA]3 [FA] | [EG]2 [CF]6 | d4 d3 c | d2 c4 A2 | %10
w: ~ ~ ~ ~ ~|~ ~ ~ ~|~ ~|My Lord, He|calls me, He|
w: steal a- way home, I|ain’t got long to|stay here.|Green trees are|bend- ing, Poor|
w: ~ ~ ~ ~ ~|~ ~ ~ ~|~ ~|My Lord, He|calls me, He|
 c3 A c3 A | c2 A4 F2 | A c3 c3 c | dc A2 !fermata!c3 [DF] | [DF]2 [DF]2 [FA]3 [FA] | %15
w: calls me by the|thun- der, *||||
w: sin- ners stand a-|trem- bling; The|trum- pet sounds with-|in my soul: I ain’t|got long to stay|
w: calls me by the|light- ning; *||||
 [EG]2 [CF]6 |] %16
w: |
w: here. *|
w: |
V:2
 x8 | x8 | x8 | x8 | x8 | x8 | x8 | x8 | d4 d3 c | d2 c4 A2 | c3 A c3 A | c2 A4 F2 | A c3 c3 c | %13
 (dc) A2 c3 x | x8 | x8 |] %16
V:3
 [F,A,]3 [F,A,] [F,A,]4 | [F,C]3 [F,C] [F,C]4 | [F,A,]3 [F,A,] [F,A,]3 B, | C2 [F,C]6 | %4
 [F,A,]3 [F,B,] [A,C]4 | B,A, [F,C]2 [C,C]3 [D,A,] | [D,A,]2 [D,A,]2 [C,C]3 [C,C] | %7
 [C,B,]2 [F,A,]6 | D4 D3 C | D2 C4 A,2 | C3 A, C3 A, | C2 A,4 F,2 | A, C3 C3 C | DC A,2 C3 [D,A,] | %14
 [D,A,]2 [D,A,]2 [C,C]3 [C,C] | [C,B,]2 [F,A,]6 |] %16
V:4
 x8 | x8 | x7 B, | C2 x6 | x8 | B,A, x6 | x8 | x8 | D4 D3 C | D2 C4 A,2 | C3 A, C3 A, | %11
 C2 A,4 F,2 | A, C3 C3 C | (DC) A,2 C3 x | x8 | x8 |] %16

